scalable/apps/preferences-desktop-display-symbolic.svg

<svg version="1.1" viewBox="0 0 16 16" xmlns="http://www.w3.org/2000/svg" xmlns:osb="http://www.openswatchbook.org/uri/2009/osb">
 <g transform="translate(-552 -160)" fill="#808080">
  <path d="m555.99 161c-1.2582 0.0145-2.1789-0.0306-2.9316 0.38477-0.37637 0.20766-0.67323 0.55938-0.83789 0.99804-0.16467 0.43867-0.22461 0.95958-0.22461 1.6172v6c0 0.65761 0.0599 1.1785 0.22461 1.6172 0.16467 0.43866 0.46152 0.79039 0.83789 0.99804 0.75275 0.41532 1.6734 0.3702 2.9316 0.38477h4e-3 8.0039 4e-3c1.2582-0.0145 2.1789 0.0306 2.9316-0.38477 0.37637-0.20766 0.67322-0.55938 0.83789-0.99804 0.16449-0.43867 0.22443-0.95958 0.22443-1.6172v-6c0-0.65761-0.0599-1.1785-0.22461-1.6172-0.16466-0.43866-0.46152-0.79038-0.83789-0.99804-0.75275-0.41534-1.6734-0.37025-2.9316-0.38477h-4e-3 -8.0039zm6e-3 1h8c1.2585 0.0147 2.0872 0.0598 2.4531 0.26172 0.18341 0.1012 0.28916 0.21274 0.38672 0.47266 0.09743 0.25991 0.16002 0.67323 0.16002 1.2656v6c0 0.59239-0.0626 1.0057-0.16016 1.2656-0.0976 0.25991-0.20331 0.37147-0.38672 0.47266-0.36595 0.20191-1.1946 0.24701-2.4531 0.26172h-7.9941-0.00586c-1.2585-0.0147-2.0872-0.0598-2.4531-0.26172-0.18341-0.10119-0.28916-0.21275-0.38672-0.47266-0.09757-0.2599-0.16016-0.67323-0.16016-1.2656v-6c0-0.59239 0.0626-1.0057 0.16016-1.2656 0.0976-0.25991 0.20331-0.37147 0.38672-0.47266 0.36595-0.20191 1.1946-0.24701 2.4531-0.26172z" color="#000000" color-rendering="auto" dominant-baseline="auto" image-rendering="auto" shape-rendering="auto" solid-color="#000000" style="font-feature-settings:normal;font-variant-alternates:normal;font-variant-caps:normal;font-variant-ligatures:normal;font-variant-numeric:normal;font-variant-position:normal;isolation:auto;mix-blend-mode:normal;shape-padding:0;text-decoration-color:#000000;text-decoration-line:none;text-decoration-style:solid;text-indent:0;text-orientation:mixed;text-transform:none;white-space:normal"/>
  <path d="m558 172h4v1.5c0 1.5 0.5 1.5 1.5 1.5h0.5v1h-8v-1h0.5c1 0 1.5 0 1.5-1.5z" color="#000000"/>
  <path d="m552.5 163a0.50005 0.50005 0 0 0-0.50195 0.5v5.5h1v-4.5469l10.9 7.5469h-7.3184v1h8.918a0.50005 0.50005 0 0 0 0.28516-0.91016l-13-9a0.50005 0.50005 0 0 0-0.28321-0.08984z" color="#000000" color-rendering="auto" dominant-baseline="auto" fill-rule="evenodd" image-rendering="auto" shape-rendering="auto" solid-color="#000000" style="font-feature-settings:normal;font-variant-alternates:normal;font-variant-caps:normal;font-variant-ligatures:normal;font-variant-numeric:normal;font-variant-position:normal;isolation:auto;mix-blend-mode:normal;shape-padding:0;text-decoration-color:#000000;text-decoration-line:none;text-decoration-style:solid;text-indent:0;text-orientation:mixed;text-transform:none;white-space:normal"/>
  <path d="m554.47 167a0.50005 0.50005 0 0 0-0.47266 0.5v2.5c0 0.41667 0.28309 0.76264 0.52734 0.88477 0.24426 0.12212 0.47266 0.11523 0.47266 0.11523h3.5a0.50005 0.50005 0 0 0 0.30078-0.90039l-4-3a0.50005 0.50005 0 0 0-0.32812-0.09961zm0.52734 1.5 1.998 1.5h-1.998z" color="#000000" color-rendering="auto" dominant-baseline="auto" fill-rule="evenodd" image-rendering="auto" shape-rendering="auto" solid-color="#000000" style="font-feature-settings:normal;font-variant-alternates:normal;font-variant-caps:normal;font-variant-ligatures:normal;font-variant-numeric:normal;font-variant-position:normal;isolation:auto;mix-blend-mode:normal;shape-padding:0;text-decoration-color:#000000;text-decoration-line:none;text-decoration-style:solid;text-indent:0;text-orientation:mixed;text-transform:none;white-space:normal"/>
 </g>
</svg>

<?xml version='1.0' encoding='UTF-8' standalone='no'?>
<svg xmlns:cc='http://creativecommons.org/ns#' xmlns:dc='http://purl.org/dc/elements/1.1/' height='16.000061' id='svg7384' xmlns:osb='http://www.openswatchbook.org/uri/2009/osb' xmlns:rdf='http://www.w3.org/1999/02/22-rdf-syntax-ns#' xmlns:svg='http://www.w3.org/2000/svg' version='1.1' width='16' xmlns='http://www.w3.org/2000/svg'>
  <metadata id='metadata20854'>
    <rdf:RDF>
      <cc:Work rdf:about=''>
        <dc:title/>
        <dc:format>image/svg+xml</dc:format>
        <dc:type rdf:resource='http://purl.org/dc/dcmitype/StillImage'/>
      </cc:Work>
    </rdf:RDF>
  </metadata>
  <defs id='defs7386'>
    <linearGradient id='linearGradient5606' osb:paint='solid'>
      <stop id='stop5608' offset='0' style='stop-color:#000000;stop-opacity:1;'/>
    </linearGradient>
    <linearGradient id='linearGradient4526' osb:paint='solid'>
      <stop id='stop4528' offset='0' style='stop-color:#ffffff;stop-opacity:1;'/>
    </linearGradient>
    <linearGradient id='linearGradient3600-4' osb:paint='gradient'>
      <stop id='stop3602-7' offset='0' style='stop-color:#f4f4f4;stop-opacity:1'/>
      <stop id='stop3604-6' offset='1' style='stop-color:#dbdbdb;stop-opacity:1'/>
    </linearGradient>
  </defs>
  <g id='layer9' label='status' style='display:inline' transform='translate(-793.00024,207.00006)'/>
  <g id='layer2' style='display:inline' transform='translate(-552.00004,-159.99994)'/>
  <g id='layer4' style='display:inline' transform='translate(-552.00004,-159.99994)'/>
  <g id='g1812' style='display:inline' transform='translate(-552.00004,-159.99994)'/>
  <g id='g6217' style='display:inline' transform='translate(-552.00004,-159.99994)'/>
  <g id='layer3' style='display:inline' transform='translate(-552.00004,-159.99994)'/>
  <g id='g1833' style='display:inline' transform='translate(-552.00004,-159.99994)'>
    <path d='m 555.99414,161 c -1.2582,0.0145 -2.17889,-0.0306 -2.93164,0.38477 -0.37637,0.20766 -0.67323,0.55938 -0.83789,0.99804 C 552.05994,162.82148 552,163.34239 552,164 v 6 c 0,0.65761 0.0599,1.17853 0.22461,1.61719 0.16467,0.43866 0.46152,0.79039 0.83789,0.99804 0.75275,0.41532 1.67345,0.3702 2.93164,0.38477 h 0.004 8.0039 0.004 c 1.25819,-0.0145 2.17889,0.0306 2.93164,-0.38477 0.37637,-0.20766 0.67322,-0.55938 0.83789,-0.99804 C 567.94006,171.17852 568,170.65761 568,170 v -6 c 0,-0.65761 -0.0599,-1.17852 -0.22461,-1.61719 -0.16466,-0.43866 -0.46152,-0.79038 -0.83789,-0.99804 -0.75275,-0.41534 -1.67344,-0.37025 -2.93164,-0.38477 h -0.004 -8.0039 z m 0.006,1 h 8 c 1.25852,0.0147 2.08717,0.0598 2.45312,0.26172 0.18341,0.1012 0.28916,0.21274 0.38672,0.47266 C 566.93741,162.99429 567,163.40761 567,164 v 6 c 0,0.59239 -0.0626,1.00572 -0.16016,1.26562 -0.0976,0.25991 -0.20331,0.37147 -0.38672,0.47266 C 566.08717,171.94019 565.25852,171.98529 564,172 H 556.00586 556 c -1.25853,-0.0147 -2.08717,-0.0598 -2.45312,-0.26172 -0.18341,-0.10119 -0.28916,-0.21275 -0.38672,-0.47266 C 553.06259,171.00572 553,170.59239 553,170 v -6 c 0,-0.59239 0.0626,-1.00572 0.16016,-1.26562 0.0976,-0.25991 0.20331,-0.37147 0.38672,-0.47266 C 553.91283,162.05981 554.74147,162.01471 556,162 Z' id='path2164' style='color:#000000;font-style:normal;font-variant:normal;font-weight:normal;font-stretch:normal;font-size:medium;line-height:normal;font-family:sans-serif;font-variant-ligatures:normal;font-variant-position:normal;font-variant-caps:normal;font-variant-numeric:normal;font-variant-alternates:normal;font-feature-settings:normal;text-indent:0;text-align:start;text-decoration:none;text-decoration-line:none;text-decoration-style:solid;text-decoration-color:#000000;letter-spacing:normal;word-spacing:normal;text-transform:none;writing-mode:lr-tb;direction:ltr;text-orientation:mixed;dominant-baseline:auto;baseline-shift:baseline;text-anchor:start;white-space:normal;shape-padding:0;clip-rule:nonzero;display:inline;overflow:visible;visibility:visible;opacity:1;isolation:auto;mix-blend-mode:normal;color-interpolation:sRGB;color-interpolation-filters:linearRGB;solid-color:#000000;solid-opacity:1;vector-effect:none;fill:#808080;fill-opacity:1;fill-rule:nonzero;stroke:none;stroke-width:1.00000012;stroke-linecap:butt;stroke-linejoin:miter;stroke-miterlimit:4;stroke-dasharray:none;stroke-dashoffset:0;stroke-opacity:1;marker:none;color-rendering:auto;image-rendering:auto;shape-rendering:auto;text-rendering:auto;enable-background:accumulate'/>
    
    <path d='m 558.00004,172 h 4 v 1.5 c 0,1.5 0.5,1.5 1.5,1.5 h 0.5 v 1 h -8 v -1 h 0.5 c 1,0 1.5,0 1.5,-1.5 z' id='path2168' style='color:#000000;display:inline;overflow:visible;visibility:visible;opacity:1;fill:#808080;fill-opacity:1;fill-rule:nonzero;stroke:none;stroke-width:2.00000024;stroke-linecap:butt;stroke-linejoin:miter;stroke-miterlimit:4;stroke-dasharray:none;stroke-dashoffset:0;stroke-opacity:1;marker:none;enable-background:accumulate'/>
    <path d='M 552.50195,163 A 0.50005,0.50005 0 0 0 552,163.5 v 5.5 h 1 v -4.54688 L 563.90039,172 h -7.31836 v 1 H 565.5 a 0.50005,0.50005 0 0 0 0.28516,-0.91016 l -13,-9 A 0.50005,0.50005 0 0 0 552.50195,163 Z' id='path2184' style='color:#000000;font-style:normal;font-variant:normal;font-weight:normal;font-stretch:normal;font-size:medium;line-height:normal;font-family:sans-serif;font-variant-ligatures:normal;font-variant-position:normal;font-variant-caps:normal;font-variant-numeric:normal;font-variant-alternates:normal;font-feature-settings:normal;text-indent:0;text-align:start;text-decoration:none;text-decoration-line:none;text-decoration-style:solid;text-decoration-color:#000000;letter-spacing:normal;word-spacing:normal;text-transform:none;writing-mode:lr-tb;direction:ltr;text-orientation:mixed;dominant-baseline:auto;baseline-shift:baseline;text-anchor:start;white-space:normal;shape-padding:0;clip-rule:nonzero;display:inline;overflow:visible;visibility:visible;opacity:1;isolation:auto;mix-blend-mode:normal;color-interpolation:sRGB;color-interpolation-filters:linearRGB;solid-color:#000000;solid-opacity:1;vector-effect:none;fill:#808080;fill-opacity:1;fill-rule:evenodd;stroke:none;stroke-width:1px;stroke-linecap:butt;stroke-linejoin:round;stroke-miterlimit:4;stroke-dasharray:none;stroke-dashoffset:0;stroke-opacity:1;color-rendering:auto;image-rendering:auto;shape-rendering:auto;text-rendering:auto;enable-background:accumulate'/>
    <path d='M 554.47266,167 A 0.50005,0.50005 0 0 0 554,167.5 v 2.5 c 0,0.41667 0.28309,0.76264 0.52734,0.88477 C 554.7716,171.00689 555,171 555,171 h 3.5 a 0.50005,0.50005 0 0 0 0.30078,-0.90039 l -4,-3 A 0.50005,0.50005 0 0 0 554.47266,167 Z M 555,168.5 556.99805,170 H 555 Z' id='path2186' style='color:#000000;font-style:normal;font-variant:normal;font-weight:normal;font-stretch:normal;font-size:medium;line-height:normal;font-family:sans-serif;font-variant-ligatures:normal;font-variant-position:normal;font-variant-caps:normal;font-variant-numeric:normal;font-variant-alternates:normal;font-feature-settings:normal;text-indent:0;text-align:start;text-decoration:none;text-decoration-line:none;text-decoration-style:solid;text-decoration-color:#000000;letter-spacing:normal;word-spacing:normal;text-transform:none;writing-mode:lr-tb;direction:ltr;text-orientation:mixed;dominant-baseline:auto;baseline-shift:baseline;text-anchor:start;white-space:normal;shape-padding:0;clip-rule:nonzero;display:inline;overflow:visible;visibility:visible;opacity:1;isolation:auto;mix-blend-mode:normal;color-interpolation:sRGB;color-interpolation-filters:linearRGB;solid-color:#000000;solid-opacity:1;vector-effect:none;fill:#808080;fill-opacity:1;fill-rule:evenodd;stroke:none;stroke-width:1px;stroke-linecap:butt;stroke-linejoin:round;stroke-miterlimit:4;stroke-dasharray:none;stroke-dashoffset:0;stroke-opacity:1;color-rendering:auto;image-rendering:auto;shape-rendering:auto;text-rendering:auto;enable-background:accumulate'/>
  </g>
  <g id='layer1' style='display:inline' transform='translate(-552.00004,-159.99994)'/>
</svg>
